X:197
T:Catching Of Quails. (p)1670.PLFD.197
M:6/4
L:1/4
Q:3/4=90
S:Playford, Dancing Master,4th Ed.,1670.
O:England
H:1670.
Z:Chris Partingto
K:C
c2 c c>BA|B2 G G>ef| g2 g e>fg|^f3 d3:|
|:^f2 g f2 g|^f2 g f>ef|g2f e>dc|B3 G3:|
|:g2 a g2 a|g2 a g2f|e2 d e>dc| B3G3:|
